assets/icons/icon-zoomin/web/icon-zoomin.svg

<?xml version="1.0" encoding="UTF-8" standalone="no"?>
<svg width="48px" height="48px" viewBox="0 0 48 48" version="1.1" xmlns="http://www.w3.org/2000/svg" xmlns:xlink="http://www.w3.org/1999/xlink">
    <!-- Generator: Sketch 45.2 (43514) - http://www.bohemiancoding.com/sketch -->
    <title>icon-zoomin</title>
    <desc>Created with Sketch.</desc>
    <defs></defs>
    <g id="Symbols" stroke="none" stroke-width="1" fill="none" fill-rule="evenodd">
        <g id="icon-zoomin" fill="#2D2D2D" fill-rule="nonzero">
            <path d="M21,22 L21,18.9953976 C21,18.4456547 21.4438648,18 22,18 C22.5522847,18 23,18.4556644 23,18.9953976 L23,22 L26.0046024,22 C26.5543453,22 27,22.4438648 27,23 C27,23.5522847 26.5443356,24 26.0046024,24 L23,24 L23,27.0046024 C23,27.5543453 22.5561352,28 22,28 C21.4477153,28 21,27.5443356 21,27.0046024 L21,24 L17.9953976,24 C17.4456547,24 17,23.5561352 17,23 C17,22.4477153 17.4556644,22 17.9953976,22 L21,22 Z M29.7465845,29.3122224 L34.7019099,34.2638871 C35.0993634,34.6610469 35.0993634,35.3049703 34.7019099,35.7021301 C34.3044564,36.09929 33.660057,36.09929 33.2626036,35.7021301 L28.3055488,30.7487374 C26.5851255,32.1470409 24.3905193,32.9852249 22,32.9852249 C16.4771525,32.9852249 12,28.5113799 12,22.9926124 C12,17.473845 16.4771525,13 22,13 C27.5228475,13 32,17.473845 32,22.9926124 C32,25.3900446 31.1550902,27.5902834 29.7465845,29.3122224 Z M22.0354865,31.0221627 C26.4537645,31.0221627 30.0354865,27.4430867 30.0354865,23.0280728 C30.0354865,18.6130588 26.4537645,15.0339828 22.0354865,15.0339828 C17.6172085,15.0339828 14.0354865,18.6130588 14.0354865,23.0280728 C14.0354865,27.4430867 17.6172085,31.0221627 22.0354865,31.0221627 Z"></path>
        </g>
    </g>
</svg>

<svg width="48" height="48" viewBox="0 0 48 48" xmlns="http://www.w3.org/2000/svg"><title>icon-zoomin</title><path d="M21 22v-3.005c0-.55.444-.995 1-.995.552 0 1 .456 1 .995V22h3.005c.55 0 .995.444.995 1 0 .552-.456 1-.995 1H23v3.005c0 .55-.444.995-1 .995-.552 0-1-.456-1-.995V24h-3.005A.995.995 0 0 1 17 23c0-.552.456-1 .995-1H21zm8.747 7.312l4.955 4.952a1.016 1.016 0 1 1-1.44 1.438l-4.956-4.953A9.963 9.963 0 0 1 22 32.985c-5.523 0-10-4.474-10-9.992C12 17.473 16.477 13 22 13s10 4.474 10 9.993a9.947 9.947 0 0 1-2.253 6.32zm-7.712 1.71c4.419 0 8-3.579 8-7.994 0-4.415-3.581-7.994-8-7.994-4.418 0-8 3.58-8 7.994 0 4.415 3.582 7.994 8 7.994z" fill="#2D2D2D" fill-rule="nonzero"/></svg>
